; generated by PrusaSlicer 2.4.2+x64 on 2022-07-06 at 16:35:30 UTC

; 

; external perimeters extrusion width = 0.60mm
; perimeters extrusion width = 0.50mm
; infill extrusion width = 0.50mm
; solid infill extrusion width = 0.50mm
; top infill extrusion width = 0.45mm
; support material extrusion width = 0.38mm
; first layer extrusion width = 0.42mm

M73 P0 R17
M73 Q0 S17
M201 X1000 Y1000 Z200 E5000 ; sets maximum accelerations, mm/sec^2
M203 X200 Y200 Z12 E120 ; sets maximum feedrates, mm / sec
M204 P1250 R1250 T1250 ; sets acceleration (P, T) and retract acceleration (R), mm/sec^2
M205 X8.00 Y8.00 Z0.40 E4.50 ; sets the jerk limits, mm/sec
M205 S0 T0 ; sets the minimum extruding and travel feed rate, mm/sec
M107
;TYPE:Custom
M862.3 P "MK3S" ; printer model check
M862.1 P0.4 ; nozzle diameter check
M115 U3.10.1 ; tell printer latest fw version
G90 ; use absolute coordinates
M83 ; extruder relative mode
M104 S215 ; set extruder temp
M140 S60 ; set bed temp
M190 S60 ; wait for bed temp
M109 S215 ; wait for extruder temp
G28 W ; home all without mesh bed level
G80 ; mesh bed leveling
G1 Z0.2 F720
G1 Y-3 F1000 ; go outside print area
G92 E0
G1 X60 E9 F1000 ; intro line
G1 X100 E12.5 F1000 ; intro line
G92 E0
M221 S95

; Don't change E values below. Excessive value can damage the printer.

M907 E538 ; set extruder motor current
G21 ; set units to millimeters
G90 ; use absolute coordinates
M83 ; use relative distances for extrusion
M900 K0.05 ; Filament gcode LA 1.5
M900 K30 ; Filament gcode LA 1.0
M107
;LAYER_CHANGE
;Z:0.2
;HEIGHT:0.2
;BEFORE_LAYER_CHANGE
G92 E0.0
;0.2


G1 E-.8 F2100
G1 Z.4 F720
;AFTER_LAYER_CHANGE
;0.2
G1 X105.441 Y88.385 F10800
G1 Z.2 F720
G1 E.8 F2100
M204 S800
;TYPE:Skirt/Brim
;WIDTH:0.42
G1 F1200
G1 X106.898 Y86.796 E.06759
G1 X109.111 Y84.835 E.09271
G1 X110.475 Y83.831 E.05312
G1 X113.006 Y82.301 E.09271
G1 X115.829 Y81.021 E.0972
G1 X118.786 Y80.091 E.0972
G1 X120.443 Y79.735 E.05312
G1 X123.378 Y79.379 E.09271
G1 X125.342 Y79.336 E.06158
G1 X128.166 Y79.523 E.08874
G1 X131.074 Y80.056 E.09271
G1 X132.706 Y80.511 E.05312
G1 X135.471 Y81.56 E.09271
G1 X136.994 Y82.301 E.05312
G1 X139.525 Y83.831 E.09271
G1 X141.615 Y85.441 E.08273
G1 X143.204 Y86.898 E.06759
G1 X145.165 Y89.111 E.09271
G1 X146.169 Y90.475 E.05312
G1 X147.699 Y93.006 E.09271
G1 X148.979 Y95.829 E.0972
G1 X149.531 Y97.431 E.05312
G1 X150.239 Y100.302 E.09271
G1 X150.621 Y103.378 E.0972
G1 X150.672 Y105.072 E.05312
G1 X150.494 Y108.023 E.09271
G1 X150.182 Y109.962 E.06158
M73 Q1 S17
G1 X149.489 Y112.706 E.08874
G1 X148.44 Y115.471 E.09271
M73 P1 R17
G1 X147.699 Y116.994 E.05312
G1 X146.169 Y119.525 E.09271
G1 X144.559 Y121.615 E.08273
G1 X143.102 Y123.204 E.06759
G1 X140.889 Y125.165 E.09271
G1 X139.525 Y126.169 E.05312
G1 X136.994 Y127.699 E.09271
G1 X134.171 Y128.979 E.0972
G1 X132.569 Y129.531 E.05312
G1 X129.698 Y130.239 E.09271
G1 X126.622 Y130.621 E.0972
G1 X124.928 Y130.672 E.05312
G1 X121.977 Y130.494 E.09271
G1 X120.038 Y130.182 E.06158
G1 X117.294 Y129.489 E.08874
G1 X114.529 Y128.44 E.09271
G1 X113.006 Y127.699 E.05312
G1 X110.475 Y126.169 E.09271
G1 X108.385 Y124.559 E.08273
G1 X106.796 Y123.102 E.06759
G1 X104.835 Y120.889 E.09271
G1 X103.831 Y119.525 E.05312
G1 X102.301 Y116.994 E.09271
G1 X101.021 Y114.171 E.0972
G1 X100.469 Y112.569 E.05312
G1 X99.761 Y109.698 E.09271
G1 X99.379 Y106.622 E.0972
G1 X99.328 Y104.928 E.05312
G1 X99.506 Y101.977 E.09271
G1 X99.818 Y100.038 E.06158
G1 X100.511 Y97.294 E.08874
G1 X101.56 Y94.529 E.09271
G1 X102.301 Y93.006 E.05312
G1 X103.831 Y90.475 E.09271
G1 X105.404 Y88.432 E.08085
M204 S1000
; printing object bowl.stl id:0 copy 0
;WIPE_START
G1 F8640
G1 X106.898 Y86.796 E-.51152
G1 X107.703 Y86.082 E-.24848
;WIPE_END
G1 E-.04 F2100
G1 Z.6 F720
G1 X126.854 Y83.409 F10800
G1 Z.2 F720
G1 E.8 F2100
M204 S800
;TYPE:Support material
G1 F1200
G1 X128.2 Y83.566 E.04248
G1 X129.464 Y83.793 E.04027
G1 X130.712 Y84.094 E.04027
G1 X131.941 Y84.47 E.04027
G1 X133.079 Y84.892 E.03806
G1 X134.32 Y85.435 E.04248
G1 X135.454 Y86.016 E.03994
G1 X136.569 Y86.674 E.0406
G1 X137.634 Y87.392 E.04027
G1 X138.655 Y88.171 E.04027
G1 X139.628 Y89.01 E.04027
G1 X140.55 Y89.904 E.04027
G1 X141.417 Y90.852 E.04027
G1 X142.226 Y91.849 E.04027
G1 X142.975 Y92.893 E.04027
G1 X143.66 Y93.979 E.04027
G1 X144.281 Y95.104 E.04027
G1 X144.833 Y96.264 E.04027
G1 X145.316 Y97.454 E.04027
G1 X145.727 Y98.671 E.04027
G1 X146.066 Y99.91 E.04027
G1 X146.316 Y101.098 E.03806
G1 X146.52 Y102.437 E.04248
G1 X146.634 Y103.716 E.04027
G1 X146.672 Y105 E.04027
G1 X146.634 Y106.284 E.04027
G1 X146.52 Y107.563 E.04027
G1 X146.341 Y108.764 E.03806
G1 X146.066 Y110.09 E.04248
G1 X145.727 Y111.329 E.04027
G1 X145.316 Y112.546 E.04027
G1 X144.833 Y113.736 E.04027
G1 X144.281 Y114.896 E.04027
G1 X143.66 Y116.021 E.04027
G1 X142.975 Y117.107 E.04027
G1 X142.267 Y118.093 E.03806
G1 X141.417 Y119.148 E.04248
G1 X140.55 Y120.096 E.04027
G1 X139.628 Y120.99 E.04027
G1 X138.655 Y121.829 E.04027
G1 X137.634 Y122.608 E.04027
G1 X136.569 Y123.326 E.04027
G1 X135.454 Y123.984 E.0406
G1 X134.32 Y124.565 E.03995
G1 X133.145 Y125.083 E.04027
G1 X131.941 Y125.53 E.04027
G1 X130.712 Y125.906 E.04027
G1 X129.464 Y126.207 E.04027
G1 X128.2 Y126.434 E.04027
G1 X126.924 Y126.586 E.04027
G1 X125.642 Y126.662 E.04027
G1 X124.358 Y126.662 E.04027
G1 X123.076 Y126.586 E.04027
G1 X121.8 Y126.434 E.04027
G1 X120.605 Y126.22 E.03806
G1 X119.288 Y125.906 E.04248
G1 X118.059 Y125.53 E.04027
G1 X116.855 Y125.083 E.04027
G1 X115.68 Y124.565 E.04027
G1 X114.537 Y123.979 E.04027
G1 X113.431 Y123.326 E.04027
G1 X112.424 Y122.648 E.03806
G1 X111.345 Y121.829 E.04248
G1 X110.372 Y120.99 E.04027
G1 X109.45 Y120.096 E.04027
G1 X108.583 Y119.148 E.04027
G1 X107.774 Y118.151 E.04027
G1 X107.025 Y117.107 E.04027
G1 X106.34 Y116.021 E.04027
G1 X105.719 Y114.896 E.04027
G1 X105.167 Y113.736 E.04027
G1 X104.684 Y112.546 E.04027
G1 X104.273 Y111.329 E.04027
G1 X103.934 Y110.09 E.04027
G1 X103.684 Y108.902 E.03806
G1 X103.48 Y107.563 E.04248
G1 X103.366 Y106.284 E.04027
G1 X103.328 Y105 E.04027
G1 X103.366 Y103.716 E.04027
G1 X103.48 Y102.437 E.04027
G1 X103.659 Y101.236 E.03806
M73 Q2 S17
G1 X103.934 Y99.91 E.04248
G1 X104.273 Y98.671 E.04027
G1 X104.684 Y97.454 E.04027
G1 X105.167 Y96.264 E.04027
G1 X105.719 Y95.104 E.04027
M73 P2 R17
G1 X106.34 Y93.979 E.04027
G1 X107.025 Y92.893 E.04027
G1 X107.733 Y91.907 E.03806
G1 X108.583 Y90.852 E.04248
G1 X109.45 Y89.904 E.04027
G1 X110.372 Y89.01 E.04027
G1 X111.345 Y88.171 E.04027
G1 X112.366 Y87.392 E.04027
G1 X113.431 Y86.674 E.04027
G1 X114.537 Y86.021 E.04027
G1 X115.68 Y85.435 E.04027
G1 X116.855 Y84.917 E.04027
G1 X118.059 Y84.47 E.04027
G1 X119.288 Y84.094 E.04027
G1 X120.536 Y83.793 E.04027
G1 X121.8 Y83.566 E.04027
G1 X123.076 Y83.414 E.04027
G1 X124.358 Y83.338 E.04027
G1 X125.642 Y83.338 E.04027
G1 X126.798 Y83.406 E.03629
M204 S1000
G1 X145.949 Y109.821 F10800
M204 S800
G1 F1200
G1 X145.949 Y101.002 E.27651
G1 X145.736 Y99.989 E.03246
G1 X145.53 Y99.236 E.02447
G1 X145.53 Y110.764 E.36143
G1 X145.402 Y111.23 E.01517
G1 X145.111 Y112.092 E.02853
G1 X145.111 Y97.908 E.44475
G1 X144.997 Y97.572 E.01111
G1 X144.692 Y96.819 E.02549
G1 X144.692 Y113.181 E.51304
G1 X144.522 Y113.6 E.01415
G1 X144.273 Y114.123 E.01818
G1 X144.273 Y95.877 E.57209
G1 X143.854 Y95.033 E.02954
G1 X143.854 Y114.967 E.62501
G1 X143.435 Y115.727 E.02721
G1 X143.435 Y94.273 E.67267
G1 X143.016 Y93.594 E.02502
G1 X143.016 Y116.406 E.71525
G1 X142.597 Y117.051 E.02413
G1 X142.597 Y92.949 E.75572
G1 X142.178 Y92.365 E.02253
G1 X142.178 Y117.635 E.79234
G1 X141.759 Y118.187 E.02173
M73 P3 R17
M73 Q3 S17
G1 X141.759 Y91.813 E.82696
G1 X141.34 Y91.296 E.02085
G1 X141.34 Y118.704 E.85934
G1 X140.921 Y119.187 E.02005
G1 X140.921 Y90.813 E.88964
G1 X140.502 Y90.355 E.01946
G1 X140.502 Y119.645 E.91836
G1 X140.083 Y120.076 E.01884
M73 P3 R16
G1 X140.083 Y89.924 E.94537
G1 X139.664 Y89.518 E.01831
M73 Q3 S16
G1 X139.664 Y120.482 E.97088
G1 X139.245 Y120.872 E.01795
G1 X139.245 Y89.128 E.99533
G1 X138.826 Y88.767 E.01734
M73 P4 R16
M73 Q4 S16
G1 X138.826 Y121.233 E1.01797
G1 X138.407 Y121.591 E.01727
G1 X138.407 Y88.409 E1.04041
G1 X137.988 Y88.089 E.01653
G1 X137.988 Y121.911 E1.06046
G1 X137.569 Y122.231 E.01653
G1 X137.569 Y87.769 E1.08052
G1 X137.15 Y87.475 E.01605
G1 X137.15 Y122.525 E1.09897
G1 X136.731 Y122.807 E.01584
G1 X136.731 Y87.193 E1.11666
G1 X136.312 Y86.917 E.01573
M73 P5 R16
M73 Q5 S16
G1 X136.312 Y123.083 E1.13397
G1 X135.893 Y123.33 E.01525
G1 X135.893 Y86.67 E1.14947
G1 X135.474 Y86.422 E.01525
G1 X135.474 Y123.578 E1.16498
G1 X135.055 Y123.807 E.01497
G1 X135.055 Y86.193 E1.17935
G1 X134.636 Y85.978 E.01476
G1 X134.636 Y124.022 E1.19283
G1 X134.217 Y124.237 E.01476
G1 X134.217 Y85.763 E1.20631
G1 X133.799 Y85.576 E.01439
M73 P6 R16
M73 Q6 S16
G1 X133.799 Y124.424 E1.21808
G1 X133.38 Y124.609 E.01435
G1 X133.38 Y85.391 E1.22965
G1 X132.961 Y85.21 E.01431
G1 X132.961 Y124.79 E1.24098
G1 X132.542 Y124.945 E.01401
G1 X132.542 Y85.055 E1.25074
G1 X132.123 Y84.899 E.01401
G1 X132.123 Y125.101 E1.2605
G1 X131.704 Y125.248 E.01392
M73 P7 R16
M73 Q7 S16
G1 X131.704 Y84.752 E1.26972
G1 X131.285 Y84.624 E.01374
G1 X131.285 Y125.376 E1.27775
G1 X130.866 Y125.504 E.01374
G1 X130.866 Y84.496 E1.28577
G1 X130.447 Y84.379 E.01364
G1 X130.447 Y125.621 E1.29309
G1 X130.028 Y125.722 E.01351
G1 X130.028 Y84.278 E1.29944
G1 X129.609 Y84.177 E.01351
M73 P8 R16
M73 Q8 S16
G1 X129.609 Y125.823 E1.30579
G1 X129.19 Y125.912 E.01343
G1 X129.19 Y84.088 E1.31134
G1 X128.771 Y84.013 E.01335
G1 X128.771 Y125.987 E1.31606
G1 X128.352 Y126.062 E.01335
G1 X128.352 Y83.938 E1.32079
G1 X127.933 Y83.876 E.01328
G1 X127.933 Y126.124 E1.32468
G1 X127.514 Y126.174 E.01323
M73 P9 R16
M73 Q9 S16
G1 X127.514 Y83.826 E1.32781
G1 X127.095 Y83.776 E.01323
M73 P9 R15
G1 X127.095 Y126.224 E1.33094
G1 X126.676 Y126.261 E.01319
M73 Q9 S15
G1 X126.676 Y83.739 E1.33325
G1 X126.257 Y83.714 E.01316
G1 X126.257 Y126.286 E1.33481
G1 X125.838 Y126.311 E.01316
G1 X125.838 Y83.689 E1.33637
G1 X125.419 Y83.677 E.01314
M73 P10 R15
M73 Q10 S15
G1 X125.419 Y126.323 E1.33714
G1 X125 Y126.323 E.01314
G1 X125 Y83.677 E1.33714
G1 X124.581 Y83.677 E.01314
G1 X124.581 Y126.323 E1.33714
G1 X124.162 Y126.311 E.01314
G1 X124.162 Y83.689 E1.33637
G1 X123.743 Y83.714 E.01316
G1 X123.743 Y126.286 E1.33481
G1 X123.324 Y126.261 E.01316
M73 P11 R15
M73 Q11 S15
G1 X123.324 Y83.739 E1.33325
G1 X122.905 Y83.776 E.01319
G1 X122.905 Y126.224 E1.33094
G1 X122.486 Y126.174 E.01323
G1 X122.486 Y83.826 E1.32781
G1 X122.067 Y83.876 E.01323
G1 X122.067 Y126.124 E1.32468
G1 X121.648 Y126.062 E.01328
G1 X121.648 Y83.938 E1.32079
G1 X121.229 Y84.013 E.01335
M73 P12 R15
M73 Q12 S15
G1 X121.229 Y125.987 E1.31606
G1 X120.81 Y125.912 E.01335
G1 X120.81 Y84.088 E1.31134
G1 X120.391 Y84.177 E.01343
G1 X120.391 Y125.823 E1.30579
G1 X119.972 Y125.722 E.01351
G1 X119.972 Y84.278 E1.29944
G1 X119.553 Y84.379 E.01351
G1 X119.553 Y125.621 E1.29309
G1 X119.134 Y125.504 E.01364
M73 P13 R15
M73 Q13 S15
G1 X119.134 Y84.496 E1.28577
G1 X118.715 Y84.624 E.01374
G1 X118.715 Y125.376 E1.27775
G1 X118.296 Y125.248 E.01374
G1 X118.296 Y84.752 E1.26972
G1 X117.877 Y84.899 E.01392
G1 X117.877 Y125.101 E1.2605
G1 X117.458 Y124.945 E.01401
G1 X117.458 Y85.055 E1.25074
G1 X117.039 Y85.21 E.01401
M73 P14 R15
M73 Q14 S15
G1 X117.039 Y124.79 E1.24098
G1 X116.62 Y124.609 E.01431
G1 X116.62 Y85.391 E1.22965
G1 X116.201 Y85.576 E.01435
G1 X116.201 Y124.424 E1.21808
G1 X115.783 Y124.237 E.01439
G1 X115.783 Y85.763 E1.20631
G1 X115.364 Y85.978 E.01477
G1 X115.364 Y124.022 E1.19282
G1 X114.945 Y123.807 E.01477
M73 P15 R14
M73 Q15 S15
G1 X114.945 Y86.193 E1.17934
G1 X114.526 Y86.422 E.01496
M73 Q15 S14
G1 X114.526 Y123.578 E1.165
G1 X114.107 Y123.331 E.01526
G1 X114.107 Y86.669 E1.14948
G1 X113.688 Y86.917 E.01526
G1 X113.688 Y123.083 E1.13397
G1 X113.269 Y122.807 E.01573
G1 X113.269 Y87.193 E1.11666
G1 X112.85 Y87.475 E.01584
G1 X112.85 Y122.525 E1.09897
G1 X112.431 Y122.231 E.01605
M73 P16 R14
M73 Q16 S14
G1 X112.431 Y87.769 E1.08052
G1 X112.012 Y88.089 E.01653
G1 X112.012 Y121.911 E1.06046
G1 X111.593 Y121.591 E.01653
G1 X111.593 Y88.409 E1.04041
G1 X111.174 Y88.767 E.01727
G1 X111.174 Y121.233 E1.01797
G1 X110.755 Y120.872 E.01734
G1 X110.755 Y89.128 E.99533
G1 X110.336 Y89.518 E.01795
G1 X110.336 Y120.482 E.97088
G1 X109.917 Y120.076 E.01831
M73 P17 R14
M73 Q17 S14
G1 X109.917 Y89.924 E.94537
G1 X109.498 Y90.355 E.01884
G1 X109.498 Y119.645 E.91836
G1 X109.079 Y119.187 E.01946
G1 X109.079 Y90.813 E.88964
G1 X108.66 Y91.296 E.02005
G1 X108.66 Y118.704 E.85934
G1 X108.241 Y118.187 E.02085
G1 X108.241 Y91.813 E.82696
G1 X107.822 Y92.365 E.02173
G1 X107.822 Y117.635 E.79234
G1 X107.403 Y117.051 E.02253
G1 X107.403 Y92.949 E.75572
G1 X106.984 Y93.594 E.02413
M73 P18 R14
M73 Q18 S14
G1 X106.984 Y116.406 E.71525
G1 X106.565 Y115.727 E.02502
G1 X106.565 Y94.273 E.67267
G1 X106.146 Y95.033 E.02721
G1 X106.146 Y114.967 E.62501
G1 X105.727 Y114.123 E.02954
G1 X105.727 Y95.877 E.57209
G1 X105.478 Y96.4 E.01818
G1 X105.308 Y96.819 E.01415
G1 X105.308 Y113.181 E.51304
G1 X105.003 Y112.428 E.02549
G1 X104.889 Y112.092 E.01111
G1 X104.889 Y97.908 E.44475
G1 X104.598 Y98.77 E.02853
G1 X104.47 Y99.236 E.01517
G1 X104.47 Y110.764 E.36143
G1 X104.264 Y110.011 E.02447
G1 X104.051 Y108.998 E.03246
G1 X104.051 Y100.179 E.27651
M204 S1000
;WIPE_START
G1 F8640
G1 X104.051 Y103.47 E-.76
;WIPE_END
G1 E-.04 F2100
G1 Z.6 F720
G1 X102.998 Y99.957 F10800
G1 Z.2 F720
G1 E.8 F2100
M204 S800
;TYPE:External perimeter
G1 F1200
G1 X103.052 Y99.696 E.00834
G1 X103.405 Y98.406 E.04196
G1 X103.834 Y97.138 E.04194
G1 X104.338 Y95.898 E.04198
G1 X104.913 Y94.69 E.04195
G1 X105.56 Y93.518 E.04196
G1 X106.274 Y92.387 E.04195
G1 X107.054 Y91.301 E.04193
G1 X107.898 Y90.261 E.04199
G1 X108.801 Y89.274 E.04194
G1 X109.761 Y88.342 E.04195
G1 X110.775 Y87.469 E.04195
G1 X111.838 Y86.658 E.04192
G1 X112.949 Y85.909 E.042
G1 X114.1 Y85.229 E.04194
G1 X115.291 Y84.618 E.04195
G1 X116.431 Y84.115 E.03909
G1 X117.768 Y83.614 E.04477
G1 X119.05 Y83.222 E.04201
G1 X120.35 Y82.908 E.04194
G1 X121.667 Y82.672 E.04195
G1 X122.995 Y82.514 E.04195
G1 X124.33 Y82.434 E.04192
G1 X125.669 Y82.434 E.042
G1 X127.005 Y82.514 E.04194
G1 X128.333 Y82.672 E.04194
G1 X129.651 Y82.909 E.042
G1 X130.951 Y83.223 E.04192
G1 X132.23 Y83.613 E.04195
G1 X133.485 Y84.079 E.04195
G1 X134.709 Y84.618 E.04195
G1 X135.89 Y85.224 E.04162
G1 X137.051 Y85.909 E.04227
G1 X138.162 Y86.658 E.042
G1 X139.225 Y87.469 E.04192
G1 X140.239 Y88.342 E.04195
G1 X141.199 Y89.274 E.04195
G1 X142.102 Y90.261 E.04194
G1 X142.946 Y91.301 E.04199
G1 X143.726 Y92.387 E.04193
G1 X144.44 Y93.518 E.04195
G1 X145.087 Y94.69 E.04196
G1 X145.662 Y95.898 E.04195
M73 P19 R14
M73 Q19 S14
G1 X146.166 Y97.138 E.04197
G1 X146.595 Y98.406 E.04195
G1 X146.948 Y99.696 E.04196
G1 X147.224 Y101.006 E.04196
G1 X147.421 Y102.329 E.04196
G1 X147.541 Y103.662 E.04196
G1 X147.581 Y105 E.04196
G1 X147.541 Y106.338 E.04196
G1 X147.421 Y107.671 E.04196
G1 X147.224 Y108.994 E.04196
G1 X146.948 Y110.304 E.04196
G1 X146.595 Y111.594 E.04196
G1 X146.166 Y112.862 E.04194
G1 X145.662 Y114.102 E.04198
G1 X145.087 Y115.31 E.04195
G1 X144.44 Y116.482 E.04196
G1 X143.726 Y117.613 E.04195
G1 X142.946 Y118.699 E.04193
G1 X142.683 Y119.028 E.01319
G1 X142.102 Y119.739 E.0288
G1 X141.199 Y120.726 E.04194
G1 X140.24 Y121.657 E.04193
G1 X139.225 Y122.532 E.04199
G1 X138.162 Y123.343 E.04194
G1 X137.052 Y124.09 E.04195
G1 X135.89 Y124.776 E.04228
G1 X134.71 Y125.381 E.04159
G1 X133.484 Y125.921 E.042
G1 X132.23 Y126.387 E.04194
G1 X130.951 Y126.777 E.04194
G1 X129.649 Y127.092 E.04199
G1 X128.333 Y127.328 E.04192
G1 X127.005 Y127.486 E.04195
G1 X125.669 Y127.566 E.04195
G1 X124.331 Y127.566 E.04195
G1 X122.995 Y127.486 E.04195
G1 X121.667 Y127.328 E.04194
G1 X120.349 Y127.091 E.042
G1 X119.049 Y126.777 E.04192
G1 X117.77 Y126.387 E.04195
G1 X116.515 Y125.921 E.04195
G1 X115.291 Y125.382 E.04194
G1 X114.1 Y124.77 E.042
G1 X112.948 Y124.09 E.04192
G1 X111.838 Y123.343 E.04195
